X: 1936
T: Arrane Ny Guilley Hesheree
R: jig
M: 6/8
K: Bminor
c|d3 f2d|c3 e2c|B2A B2c|B2A F2c|
d3 f2d|c3 e2c|B2c d2e|f3f2 c|
d3 f2d|c3 e2c|B2A B2c|B2A F2A|
B3 d2c|B2A B2c|d2B c2A|B3B2||

